X:1
T:Title
%%score { ( 1 3 ) | ( 2 4 5 ) }
L:1/8
M:12/8
K:Ab
V:1 treble nm="Grand Piano"
V:3 treble 
V:2 bass 
V:4 bass 
V:5 bass 
V:1
 z6 z3 z2[Q:1/4=87] C | .F3 z3 .F3 z3 | .[E,A,CE]3 [G,B,D]2- [G,B,DE] [CE]6 | FGA AGF .[CF]3 z3 | %4
 .[G,C=E]3 E2[K:treble] =D G3- G2 G | %5
[M:13/8] .[DGB]3 .[CFA]3 [B,=EG]2 [G,C] [A,CF]3[K:bass] [=E,B,C] | %6
[M:6/4] D[K:treble]_GABAG =E2 F [A,CF]3- |[M:9/8] [A,CF]8- [A,CF] |[M:3/8] A2 B | %9
[M:6/4] [CEAc]3 f3 e c2 A2 B | c6- [FAc]6 | %11
[M:31/16] A-<Ac[FA_cf]/-[FAcf]/-[FAcf]-<[FAcf] z A-[FA]/-[FA]/-[FA]-<[FA][B,=CE]/-[B,CE]/-[B,CE]/-[B,CE]-<[B,CE] z | %12
[M:11/8] [A,CF]-[A,CF]-[A,CF]-[A,CF]-[A,CF]-[A,CF]-[A,CF]- [A,CF]3 z |] %13
V:2
 z12 | [F,,C,]6 z2 C C2 D | z EE z2 E, z G,F, E,2 C | z6 z3 C3 | z =EE G,,3 [C,,G,,=E,G,C]6 | %5
[M:13/8] z[K:treble] BB[K:bass] z[K:treble] AA[K:bass] C,2 B,, A,,3 G,, | %6
[M:6/4] z2 z [_G,B,]3 [C,,C,]3 [F,,C,]3- |[M:9/8] [F,,C,]8- [F,,C,] |[M:3/8] z3 | %9
[M:6/4] [A,,E,A,]3[K:treble] [D,,D,A,FAd]3 .[A,,E,A,CEAc]6 | %10
 C2 D C2[K:bass] A, F,3[K:treble] F2 G | %11
[M:31/16][K:bass] [F,,F,]/-[F,,F,]/-[F,,F,]-<[F,,F,][D,_C]/-[D,C]/-[D,C]-<[D,C][K:treble].d3/2[K:bass] z/ A,/-A,/-A,-<A, z/ z/ z/ z/ z F3/2 | %12
[M:11/8] [F,,C,F,]-[F,,C,F,]-[F,,C,F,]-[F,,C,F,]-[F,,C,F,]-[F,,C,F,]-[F,,C,F,]- [F,,C,F,]3 z |] %13
V:3
 x12 | [A,C]-[A,-C-G][A,-C-A] [A,-C-A][A,-C-G][A,CF] A,6 | z3 .[F,E]3 .A,3 z3 | [A,C]6 A,6 | %4
 z3 [F,G,_C]3[K:treble] z6 |[M:13/8] x12[K:bass] x |[M:6/4] .[D,_G,B,]6[K:treble] .[G,B,]6 | %7
[M:9/8] x9 |[M:3/8] x3 |[M:6/4] x12 | [=EG]6 z6 | %11
[M:31/16] [CF]/-[CF]/-[CF]-<[CF] z/ z/ z/ z/ z/ z/ z .[_CF_c]3/2 z/ z/ z/ z G/-G/-G-<G z/ z | %12
[M:11/8] x11 |] %13
V:4
 x12 | z6 [F,,C,]6 | E,,3 E,,3 A,,6 | [F,,C,]6 z2 C z2 =D | G,,3 z3 z6 | %5
[M:13/8] C,3[K:treble][K:bass] C,3[K:treble][K:bass] z z z z z z2 |[M:6/4] _G,,6 z6 |[M:9/8] x9 | %8
[M:3/8] x3 |[M:6/4] x3[K:treble] x9 | x5[K:bass] x4[K:treble] x3 | %11
[M:31/16][K:bass] z/ z/ z/ z/ z/ z/ z/ z/ z/ z/ z/ z/[K:treble] z[K:bass] C,/-C,/-C,/-C,/-C,-<C,C,/-C,/-C,/-C,-<C, z | %12
[M:11/8] x11 |] %13
V:5
 x12 | x12 | x12 | z6 [F,,C,]6 | x12 |[M:13/8] x[K:treble] x2[K:bass] x[K:treble] x2[K:bass] x7 | %6
[M:6/4] x12 |[M:9/8] x9 |[M:3/8] x3 |[M:6/4] x3[K:treble] x9 | x5[K:bass] x4[K:treble] x3 | %11
[M:31/16][K:bass] x6[K:treble] x[K:bass] x17/2 |[M:11/8] x11 |] %13

